docs/img/facebook.svg

<svg width="23" height="23" viewBox="0 0 23 23" fill="none" xmlns="http://www.w3.org/2000/svg">
	<path opacity="0.3" d="M19.033 0H3.267C2.40078 0.000794332 1.57027 0.34525 0.957759 0.957759C0.34525 1.57027 0.000794332 2.40078 0 3.267L0 19.033C0.000794332 19.8992 0.34525 20.7297 0.957759 21.3422C1.57027 21.9548 2.40078 22.2992 3.267 22.3H9.843V14.417H7.23V10.5H9.843V7.84C9.84406 6.80068 10.2574 5.80422 10.9923 5.06931C11.7272 4.3344 12.7237 3.92106 13.763 3.92H17.726V7.84H13.763V10.5H17.726L17.073 14.42H13.763V22.3H19.033C19.8992 22.2992 20.7297 21.9548 21.3422 21.3422C21.9548 20.7297 22.2992 19.8992 22.3 19.033V3.267C22.2992 2.40078 21.9548 1.57027 21.3422 0.957759C20.7297 0.34525 19.8992 0.000794332 19.033 0V0Z" fill="#050505"/>
</svg>

<svg width="23" height="23" fill="none" xmlns="http://www.w3.org/2000/svg"><path opacity=".3" d="M19.033 0H3.267A3.27 3.27 0 000 3.267v15.766A3.27 3.27 0 003.267 22.3h6.576v-7.883H7.23V10.5h2.613V7.84a3.924 3.924 0 013.92-3.92h3.963v3.92h-3.963v2.66h3.963l-.653 3.92h-3.31v7.88h5.27a3.27 3.27 0 003.267-3.267V3.267A3.27 3.27 0 0019.033 0z" fill="#050505"/></svg>
